; generated by Slic3r 1.3.0 on 2022-02-13 at 13:21:30

; external perimeters extrusion width = 0.55mm (4.37mm^3/s)
; perimeters extrusion width = 0.70mm (11.44mm^3/s)
; infill extrusion width = 0.63mm (13.45mm^3/s)
; solid infill extrusion width = 0.70mm (3.81mm^3/s)
; top infill extrusion width = 0.70mm (2.86mm^3/s)

M107
M190 S40 ; set bed temperature and wait for it to be reached
M104 S200 ; set temperature
G28 ; home all axes
G1 Z5 F5000 ; lift nozzle

; Filament gcode

M109 S200 ; set temperature and wait for it to be reached
G21 ; set units to millimeters
G90 ; use absolute coordinates
M82 ; use absolute distances for extrusion
G92 E0
G1 Z0.350 F7800.000
G1 E-2.00000 F2400.00000
G92 E0
G1 X3.939 Y26.640 F7800.000
G1 E2.00000 F2400.00000
G1 F1800
G1 X5.095 Y26.538 E2.10558
G1 X155.095 Y26.538 E15.74501
G1 X157.354 Y26.935 E15.95356
G1 X159.342 Y28.079 E16.16210
G1 X160.821 Y29.831 E16.37064
G1 X161.614 Y31.983 E16.57918
G1 X161.720 Y33.163 E16.68689
G1 X161.720 Y83.187 E21.23551
G1 X161.530 Y136.860 E26.11608
G1 X161.125 Y139.118 E26.32462
G1 X159.974 Y141.102 E26.53316
G1 X158.216 Y142.575 E26.74170
G1 X156.061 Y143.360 E26.95025
G1 X154.905 Y143.462 E27.05582
G1 X4.905 Y143.462 E40.69526
G1 X2.646 Y143.065 E40.90380
G1 X0.658 Y141.921 E41.11235
G1 X-0.821 Y140.169 E41.32089
G1 X-1.614 Y138.017 E41.52943
G1 X-1.720 Y136.837 E41.63714
G1 X-1.720 Y86.813 E46.18576
G1 X-1.530 Y33.140 E51.06632
G1 X-1.125 Y30.882 E51.27486
G1 X0.026 Y28.898 E51.48341
G1 X1.784 Y27.425 E51.69195
G1 X3.868 Y26.666 E51.89367
G1 E49.89367 F2400.00000
G92 E0
G1 X49.097 Y134.571 F7800.000
G1 E2.00000 F2400.00000
G1 F1800
G1 X48.124 Y134.443 E2.08926
G1 X47.224 Y134.070 E2.17788
G1 X46.450 Y133.477 E2.26650
G1 X45.857 Y132.704 E2.35512
G1 X45.503 Y131.848 E2.43929
G1 X45.356 Y130.844 E2.53159
G1 X45.484 Y129.871 E2.62086
G1 X45.857 Y128.970 E2.70948
G1 X46.450 Y128.197 E2.79809
G1 X47.224 Y127.604 E2.88671
G1 X48.124 Y127.231 E2.97533
G1 X49.042 Y127.110 E3.05950
G1 X50.050 Y127.228 E3.15180
G1 X50.957 Y127.604 E3.24107
G1 X51.730 Y128.197 E3.32969
G1 X52.323 Y128.970 E3.41830
G1 X52.696 Y129.871 E3.50692
G1 X52.824 Y130.837 E3.59554
G1 X52.696 Y131.803 E3.68416
G1 X52.323 Y132.704 E3.77278
G1 X51.730 Y133.477 E3.86140
G1 X50.957 Y134.070 E3.95002
G1 X50.102 Y134.424 E4.03418
G1 X49.172 Y134.560 E4.11967
G1 X49.093 Y133.940 F7800.000
G1 F1800
G1 X48.287 Y133.834 E4.19356
G1 X47.539 Y133.524 E4.26722
G1 X46.896 Y133.031 E4.34087
G1 X46.403 Y132.388 E4.41453
G1 X46.110 Y131.681 E4.48415
G1 X45.987 Y130.839 E4.56149
G1 X46.093 Y130.034 E4.63538
G1 X46.403 Y129.285 E4.70904
G1 X46.896 Y128.643 E4.78270
G1 X47.539 Y128.150 E4.85635
G1 X48.287 Y127.840 E4.93001
G1 X49.046 Y127.740 E4.99963
G1 X49.891 Y127.839 E5.07697
G1 X50.642 Y128.150 E5.15086
G1 X51.284 Y128.643 E5.22452
G1 X51.778 Y129.285 E5.29818
G1 X52.088 Y130.034 E5.37184
G1 X52.193 Y130.837 E5.44549
G1 X52.088 Y131.640 E5.51915
G1 X51.778 Y132.388 E5.59281
G1 X51.284 Y133.031 E5.66647
G1 X50.642 Y133.524 E5.74012
G1 X49.934 Y133.817 E5.80974
G1 X49.167 Y133.929 E5.88027
G1 X49.093 Y133.940 F7800.000
G1 E3.88027 F2400.00000
G92 E0
G1 X80.768 Y134.570 F7800.000
G1 E2.00000 F2400.00000
G1 F1800
G1 X79.802 Y134.443 E2.08862
G1 X78.901 Y134.070 E2.17724
G1 X78.128 Y133.477 E2.26586
G1 X77.535 Y132.704 E2.35447
G1 X77.162 Y131.803 E2.44309
G1 X77.035 Y130.837 E2.53171
G1 X77.162 Y129.871 E2.62033
G1 X77.535 Y128.970 E2.70895
G1 X78.128 Y128.197 E2.79757
G1 X78.901 Y127.604 E2.88619
G1 X79.802 Y127.231 E2.97481
G1 X80.720 Y127.110 E3.05897
G1 X81.728 Y127.228 E3.15128
G1 X82.635 Y127.604 E3.24054
G1 X83.408 Y128.197 E3.32916
G1 X84.001 Y128.970 E3.41778
G1 X84.356 Y129.825 E3.50195
G1 X84.502 Y130.830 E3.59425
G1 X84.374 Y131.803 E3.68352
G1 X84.001 Y132.704 E3.77213
G1 X83.408 Y133.477 E3.86075
G1 X82.635 Y134.070 E3.94937
G1 X81.734 Y134.443 E4.03799
G1 X80.843 Y134.560 E4.11979
G1 X80.768 Y133.940 F7800.000
G1 F1800
G1 X79.965 Y133.834 E4.19345
G1 X79.217 Y133.524 E4.26711
G1 X78.574 Y133.031 E4.34076
G1 X78.081 Y132.388 E4.41442
G1 X77.771 Y131.640 E4.48808
G1 X77.665 Y130.837 E4.56174
G1 X77.771 Y130.034 E4.63539
G1 X78.081 Y129.285 E4.70905
G1 X78.574 Y128.643 E4.78271
G1 X79.217 Y128.150 E4.85637
G1 X79.965 Y127.840 E4.93002
G1 X80.724 Y127.740 E4.99964
G1 X81.569 Y127.839 E5.07698
G1 X82.320 Y128.150 E5.15087
G1 X82.962 Y128.643 E5.22453
G1 X83.455 Y129.285 E5.29819
G1 X83.748 Y129.993 E5.36781
G1 X83.871 Y130.834 E5.44515
G1 X83.765 Y131.640 E5.51904
G1 X83.455 Y132.388 E5.59270
G1 X82.962 Y133.031 E5.66635
G1 X82.320 Y133.524 E5.74001
G1 X81.571 Y133.834 E5.81367
G1 X80.843 Y133.930 E5.88051
G1 X80.768 Y133.940 F7800.000
G1 E3.88051 F2400.00000
G92 E0
G1 X110.390 Y134.443 F7800.000
G1 E2.00000 F2400.00000
G1 F1800
G1 X109.489 Y134.070 E2.08862
G1 X108.716 Y133.477 E2.17724
G1 X108.123 Y132.704 E2.26586
G1 X107.750 Y131.803 E2.35447
G1 X107.622 Y130.837 E2.44309
G1 X107.750 Y129.871 E2.53171
G1 X108.123 Y128.970 E2.62033
G1 X108.716 Y128.197 E2.70895
G1 X109.489 Y127.604 E2.79757
G1 X110.390 Y127.231 E2.88619
G1 X111.307 Y127.110 E2.97035
G1 X112.315 Y127.228 E3.06266
G1 X113.222 Y127.604 E3.15192
G1 X113.996 Y128.197 E3.24054
G1 X114.589 Y128.970 E3.32916
G1 X114.943 Y129.825 E3.41333
G1 X115.090 Y130.830 E3.50563
G1 X114.962 Y131.803 E3.59490
G1 X114.589 Y132.704 E3.68352
G1 X113.996 Y133.477 E3.77213
G1 X113.222 Y134.070 E3.86075
G1 X112.322 Y134.443 E3.94937
G1 X111.356 Y134.570 E4.03799
G1 X110.464 Y134.453 E4.11979
G1 X110.553 Y133.834 F7800.000
G1 F1800
G1 X109.804 Y133.524 E4.19345
G1 X109.162 Y133.031 E4.26711
G1 X108.669 Y132.388 E4.34076
G1 X108.359 Y131.640 E4.41442
G1 X108.253 Y130.837 E4.48808
G1 X108.359 Y130.034 E4.56174
G1 X108.669 Y129.285 E4.63539
G1 X109.162 Y128.643 E4.70905
G1 X109.804 Y128.150 E4.78271
G1 X110.553 Y127.840 E4.85637
G1 X111.312 Y127.740 E4.92598
G1 X112.157 Y127.839 E5.00333
G1 X112.907 Y128.150 E5.07722
G1 X113.550 Y128.643 E5.15087
G1 X114.043 Y129.285 E5.22453
G1 X114.336 Y129.993 E5.29415
G1 X114.459 Y130.834 E5.37149
G1 X114.353 Y131.640 E5.44538
G1 X114.043 Y132.388 E5.51904
G1 X113.550 Y133.031 E5.59270
G1 X112.907 Y133.524 E5.66635
G1 X112.159 Y133.834 E5.74001
G1 X111.356 Y133.940 E5.81367
G1 X110.627 Y133.844 E5.88051
G1 X110.553 Y133.834 F7800.000
G1 E3.88051 F2400.00000
G92 E0
G1 X143.335 Y134.443 F7800.000
G1 E2.00000 F2400.00000
G1 F1800
G1 X142.435 Y134.070 E2.08862
G1 X141.661 Y133.477 E2.17724
G1 X141.068 Y132.704 E2.26586
G1 X140.695 Y131.803 E2.35448
G1 X140.568 Y130.837 E2.44309
G1 X140.695 Y129.871 E2.53171
G1 X141.068 Y128.970 E2.62033
G1 X141.661 Y128.197 E2.70895
G1 X142.435 Y127.604 E2.79757
G1 X143.335 Y127.231 E2.88619
G1 X144.253 Y127.110 E2.97036
G1 X145.261 Y127.228 E3.06266
G1 X146.168 Y127.604 E3.15193
G1 X146.941 Y128.197 E3.24054
G1 X147.534 Y128.970 E3.32916
G1 X147.907 Y129.871 E3.41778
G1 X148.035 Y130.837 E3.50640
G1 X147.907 Y131.803 E3.59502
G1 X147.553 Y132.658 E3.67919
G1 X146.947 Y133.472 E3.77149
G1 X146.168 Y134.070 E3.86075
G1 X145.268 Y134.443 E3.94937
G1 X144.301 Y134.570 E4.03799
G1 X143.409 Y134.453 E4.11979
G1 X143.498 Y133.834 F7800.000
G1 F1800
G1 X142.750 Y133.524 E4.19345
G1 X142.107 Y133.031 E4.26711
G1 X141.614 Y132.388 E4.34076
G1 X141.304 Y131.640 E4.41442
G1 X141.198 Y130.837 E4.48808
G1 X141.304 Y130.034 E4.56174
G1 X141.614 Y129.285 E4.63539
G1 X142.107 Y128.643 E4.70905
G1 X142.750 Y128.150 E4.78271
G1 X143.498 Y127.840 E4.85637
G1 X144.257 Y127.740 E4.92599
G1 X145.102 Y127.839 E5.00333
G1 X145.853 Y128.150 E5.07722
G1 X146.495 Y128.643 E5.15088
G1 X146.989 Y129.285 E5.22453
G1 X147.299 Y130.034 E5.29819
G1 X147.404 Y130.837 E5.37185
G1 X147.299 Y131.640 E5.44551
G1 X147.006 Y132.347 E5.51512
G1 X146.498 Y133.029 E5.59247
G1 X145.853 Y133.524 E5.66636
G1 X145.104 Y133.834 E5.74001
G1 X144.301 Y133.940 E5.81367
G1 X143.573 Y133.844 E5.88051
G1 X143.498 Y133.834 F7800.000
G1 E3.88051 F2400.00000
G92 E0
G1 X112.664 Y100.184 F7800.000
G1 E2.00000 F2400.00000
G1 F1800
G1 X111.657 Y100.052 E2.09233
G1 X110.654 Y99.636 E2.19105
G1 X109.708 Y98.932 E2.29831
G1 X109.007 Y98.019 E2.40295
G1 X108.592 Y97.016 E2.50167
G1 X108.421 Y95.848 E2.60893
G1 X108.571 Y94.708 E2.71357
G1 X109.007 Y93.655 E2.81715
G1 X109.701 Y92.751 E2.92073
G1 X110.604 Y92.058 E3.02431
G1 X111.657 Y91.622 E3.12789
G1 X112.733 Y91.480 E3.22661
G1 X113.905 Y91.618 E3.33388
G1 X114.968 Y92.058 E3.43851
G1 X115.872 Y92.751 E3.54209
G1 X116.565 Y93.655 E3.64567
G1 X116.981 Y94.658 E3.74439
G1 X117.151 Y95.825 E3.85166
G1 X117.001 Y96.966 E3.95630
G1 X116.565 Y98.019 E4.05987
G1 X115.872 Y98.922 E4.16345
G1 X114.968 Y99.616 E4.26704
G1 X113.916 Y100.052 E4.37062
G1 X112.738 Y100.194 E4.47848
G1 X112.745 Y99.565 F7800.000
G1 F1800
G1 X111.820 Y99.443 E4.56332
G1 X110.965 Y99.089 E4.64749
G1 X110.151 Y98.482 E4.73979
G1 X109.553 Y97.704 E4.82906
G1 X109.199 Y96.848 E4.91322
G1 X109.052 Y95.844 E5.00553
G1 X109.180 Y94.871 E5.09479
G1 X109.553 Y93.970 E5.18341
G1 X110.146 Y93.197 E5.27203
G1 X110.920 Y92.604 E5.36065
G1 X111.820 Y92.231 E5.44927
G1 X112.738 Y92.110 E5.53343
G1 X113.746 Y92.228 E5.62574
G1 X114.653 Y92.604 E5.71500
G1 X115.426 Y93.197 E5.80362
G1 X116.019 Y93.970 E5.89224
G1 X116.374 Y94.825 E5.97641
G1 X116.520 Y95.830 E6.06871
G1 X116.392 Y96.803 E6.15798
G1 X116.019 Y97.704 E6.24659
G1 X115.426 Y98.477 E6.33521
G1 X114.653 Y99.070 E6.42383
G1 X113.753 Y99.443 E6.51245
G1 X112.819 Y99.566 E6.59803
G1 X112.786 Y98.940 F7800.000
G1 F1800
G1 X111.983 Y98.834 E6.67169
G1 X111.276 Y98.541 E6.74131
G1 X110.594 Y98.033 E6.81865
G1 X110.099 Y97.388 E6.89254
G1 X109.806 Y96.681 E6.96216
G1 X109.683 Y95.839 E7.03950
G1 X109.789 Y95.034 E7.11339
G1 X110.099 Y94.285 E7.18705
G1 X110.592 Y93.643 E7.26070
G1 X111.235 Y93.150 E7.33436
G1 X111.983 Y92.840 E7.40802
G1 X112.742 Y92.740 E7.47764
G1 X113.587 Y92.839 E7.55498
G1 X114.338 Y93.150 E7.62887
G1 X114.980 Y93.643 E7.70253
G1 X115.474 Y94.285 E7.77619
G1 X115.767 Y94.993 E7.84580
G1 X115.890 Y95.834 E7.92315
G1 X115.784 Y96.640 E7.99704
G1 X115.474 Y97.388 E8.07069
G1 X114.980 Y98.031 E8.14435
G1 X114.338 Y98.524 E8.21801
G1 X113.589 Y98.834 E8.29167
G1 X112.861 Y98.930 E8.35851
G1 X112.786 Y98.940 F7800.000
G1 E6.35851 F2400.00000
G92 E0
G1 X47.786 Y100.200 F7800.000
G1 E2.00000 F2400.00000
G1 F1800
G1 X46.657 Y100.052 E2.10358
G1 X45.604 Y99.616 E2.20716
G1 X44.701 Y98.922 E2.31074
G1 X44.007 Y98.019 E2.41432
G1 X43.592 Y97.016 E2.51304
G1 X43.421 Y95.848 E2.62030
G1 X43.571 Y94.708 E2.72494
G1 X44.007 Y93.655 E2.82852
G1 X44.701 Y92.751 E2.93210
G1 X45.604 Y92.058 E3.03568
G1 X46.657 Y91.622 E3.13926
G1 X47.733 Y91.480 E3.23798
G1 X48.905 Y91.618 E3.34524
G1 X49.968 Y92.058 E3.44988
G1 X50.872 Y92.751 E3.55346
G1 X51.565 Y93.655 E3.65704
G1 X51.981 Y94.658 E3.75576
G1 X52.151 Y95.825 E3.86303
G1 X52.001 Y96.966 E3.96766
G1 X51.565 Y98.019 E4.07124
G1 X50.872 Y98.922 E4.17482
G1 X49.968 Y99.616 E4.27840
G1 X48.916 Y100.052 E4.38198
G1 X47.861 Y100.191 E4.47874
G1 X47.786 Y99.570 F7800.000
G1 F1800
G1 X46.820 Y99.443 E4.56736
G1 X45.920 Y99.070 E4.65598
G1 X45.146 Y98.477 E4.74460
G1 X44.553 Y97.704 E4.83322
G1 X44.199 Y96.848 E4.91739
G1 X44.052 Y95.844 E5.00969
G1 X44.180 Y94.871 E5.09896
G1 X44.553 Y93.970 E5.18757
G1 X45.146 Y93.197 E5.27619
G1 X45.920 Y92.604 E5.36481
G1 X46.820 Y92.231 E5.45343
G1 X47.738 Y92.110 E5.53760
G1 X48.746 Y92.228 E5.62990
G1 X49.653 Y92.604 E5.71917
G1 X50.426 Y93.197 E5.80779
G1 X51.019 Y93.970 E5.89640
G1 X51.374 Y94.825 E5.98057
G1 X51.520 Y95.830 E6.07288
G1 X51.392 Y96.803 E6.16214
G1 X51.019 Y97.704 E6.25076
G1 X50.426 Y98.477 E6.33938
G1 X49.653 Y99.070 E6.42800
G1 X48.753 Y99.443 E6.51661
G1 X47.861 Y99.560 E6.59841
G1 X47.786 Y98.940 F7800.000
G1 F1800
G1 X46.983 Y98.834 E6.67207
G1 X46.235 Y98.524 E6.74573
G1 X45.592 Y98.031 E6.81939
G1 X45.099 Y97.388 E6.89304
G1 X44.806 Y96.681 E6.96266
G1 X44.683 Y95.839 E7.04001
G1 X44.789 Y95.034 E7.11390
G1 X45.099 Y94.285 E7.18755
G1 X45.592 Y93.643 E7.26121
G1 X46.235 Y93.150 E7.33487
G1 X46.983 Y92.840 E7.40853
G1 X47.742 Y92.740 E7.47814
G1 X48.587 Y92.839 E7.55549
G1 X49.338 Y93.150 E7.62938
G1 X49.980 Y93.643 E7.70303
G1 X50.474 Y94.285 E7.77669
G1 X50.767 Y94.993 E7.84631
G1 X50.890 Y95.834 E7.92365
G1 X50.784 Y96.640 E7.99754
G1 X50.474 Y97.388 E8.07120
G1 X49.980 Y98.031 E8.14486
G1 X49.338 Y98.524 E8.21851
G1 X48.589 Y98.834 E8.29217
G1 X47.861 Y98.930 E8.35901
G1 X47.786 Y98.940 F7800.000
G1 E6.35901 F2400.00000
G92 E0
G1 X79.298 Y135.237 F7800.000
G1 E2.00000 F2400.00000
G1 F1800
G1 X50.561 Y135.237 E4.61302
G1 X50.501 Y134.935 E4.64100
G1 X51.272 Y134.616 E4.71691
G1 X52.176 Y133.922 E4.82049
G1 X52.869 Y133.019 E4.92407
G1 X53.305 Y131.966 E5.02765
G1 X53.454 Y130.837 E5.13123
G1 X53.305 Y129.708 E5.23481
G1 X52.869 Y128.655 E5.33839
G1 X52.176 Y127.751 E5.44197
G1 X51.272 Y127.058 E5.54555
G1 X50.209 Y126.618 E5.65019
G1 X49.037 Y126.480 E5.75746
G1 X47.961 Y126.622 E5.85617
G1 X46.908 Y127.058 E5.95975
G1 X46.005 Y127.751 E6.06333
G1 X45.311 Y128.655 E6.16691
G1 X44.875 Y129.708 E6.27049
G1 X44.725 Y130.848 E6.37513
G1 X44.896 Y132.016 E6.48240
G1 X45.311 Y133.019 E6.58111
G1 X46.005 Y133.922 E6.68469
G1 X46.908 Y134.616 E6.78827
G1 X47.680 Y134.935 E6.86418
G1 X47.620 Y135.237 E6.89216
G1 X16.979 Y135.237 E9.67834
G1 X16.919 Y134.935 E9.70632
G1 X17.690 Y134.616 E9.78223
G1 X18.594 Y133.922 E9.88581
G1 X19.287 Y133.019 E9.98939
G1 X19.723 Y131.966 E10.09297
G1 X19.872 Y130.837 E10.19655
G1 X19.723 Y129.708 E10.30013
G1 X19.287 Y128.655 E10.40371
G1 X18.594 Y127.751 E10.50729
G1 X17.690 Y127.058 E10.61087
G1 X16.627 Y126.618 E10.71551
G1 X15.455 Y126.480 E10.82277
G1 X14.379 Y126.622 E10.92149
G1 X13.326 Y127.058 E11.02507
G1 X12.423 Y127.751 E11.12865
G1 X11.729 Y128.655 E11.23223
G1 X11.295 Y129.703 E11.33540
G1 X11.142 Y130.818 E11.43766
G1 X11.293 Y131.966 E11.54302
G1 X11.729 Y133.019 E11.64660
G1 X12.423 Y133.922 E11.75018
G1 X13.326 Y134.616 E11.85376
G1 X14.098 Y134.935 E11.92967
G1 X14.038 Y135.237 E11.95764
G1 X6.504 Y135.237 E12.64262
G1 X6.504 Y88.437 E16.89817
G1 X153.305 Y88.437 E30.24667
G1 X153.305 Y135.237 E34.50221
G1 X145.772 Y135.237 E35.18719
G1 X145.712 Y134.935 E35.21517
G1 X146.483 Y134.616 E35.29108
G1 X147.396 Y133.915 E35.39572
G1 X148.101 Y132.969 E35.50298
G1 X148.516 Y131.966 E35.60170
G1 X148.665 Y130.837 E35.70528
G1 X148.516 Y129.707 E35.80886
G1 X148.080 Y128.655 E35.91244
G1 X147.387 Y127.751 E36.01602
G1 X146.483 Y127.058 E36.11960
G1 X145.420 Y126.618 E36.22424
G1 X144.248 Y126.480 E36.33150
G1 X143.172 Y126.622 E36.43022
G1 X142.120 Y127.058 E36.53380
G1 X141.216 Y127.751 E36.63738
G1 X140.522 Y128.655 E36.74096
G1 X140.086 Y129.708 E36.84454
G1 X139.938 Y130.837 E36.94812
G1 X140.086 Y131.966 E37.05170
G1 X140.522 Y133.019 E37.15528
G1 X141.216 Y133.922 E37.25886
G1 X142.120 Y134.616 E37.36244
G1 X142.891 Y134.935 E37.43835
G1 X142.831 Y135.237 E37.46633
G1 X112.826 Y135.237 E40.19462
G1 X112.766 Y134.935 E40.22260
G1 X113.538 Y134.616 E40.29850
G1 X114.441 Y133.922 E40.40208
G1 X115.135 Y133.019 E40.50566
G1 X115.571 Y131.966 E40.60924
G1 X115.721 Y130.825 E40.71388
G1 X115.550 Y129.658 E40.82115
G1 X115.135 Y128.655 E40.91987
G1 X114.441 Y127.751 E41.02345
G1 X113.538 Y127.058 E41.12703
G1 X112.474 Y126.618 E41.23166
G1 X111.303 Y126.480 E41.33893
G1 X110.226 Y126.622 E41.43765
G1 X109.174 Y127.058 E41.54123
G1 X108.270 Y127.751 E41.64481
G1 X107.577 Y128.655 E41.74839
G1 X107.141 Y129.708 E41.85197
G1 X106.992 Y130.837 E41.95555
G1 X107.141 Y131.966 E42.05913
